X: 61
T: Carolan's Welcome
R: waltz
M: 3/4
L: 1/8
K: Bmin
dc | B2 de f2|B2 de f2|ef ed cB|(3ABc A2 F2|
d3c B2|e3d c2|df F2 A2|B4 dc|
B2 de f2|B2 de f2|ef ed cB|(3ABc A2 F2|
a3g f2|b3a fe|df ed cd| B4 :|
|: B2 | F2 Bc d2|F2 Bc d2|dc BA Bc|d2 F2 F2|
G2 BG FE| F2 AF ED | E2 F2 A2|B6|
ba fa b2|afef a2|fe de fd|e2 c2 (3ABc|
d3c B2|e3d c2|df F2 A2| B4 :|


